svg/Outline/bag-close.svg

<svg viewBox="0 0 24 24" xmlns="http://www.w3.org/2000/svg" width="24" height="24"><path d="M9.36 12.36a.9.9 0 0 1 1.27 0L12 13.73l1.37-1.37a.9.9 0 0 1 1.27 1.27L13.28 15l1.36 1.37.06.06a.9.9 0 0 1-1.26 1.27l-.07-.06L12 16.27l-1.37 1.37-.06.06a.9.9 0 0 1-1.27-1.26l.06-.07L10.73 15l-1.37-1.37a.9.9 0 0 1 0-1.27"/><path fill-rule="evenodd" d="M12.27 1a5 5 0 0 1 4.74 5v1.04c1.09.05 1.84.18 2.47.5a5 5 0 0 1 2.19 2.19c.54 1.07.54 2.47.54 5.27s0 4.2-.54 5.27l-.1.17a5 5 0 0 1-2.09 2.02l-.2.1c-.77.32-1.72.4-3.21.43L14.2 23H7.93c-1.49-.03-2.44-.12-3.2-.45l-.21-.1a5 5 0 0 1-2.1-2l-.09-.18C1.8 19.2 1.8 17.8 1.8 15c0-2.63 0-4.02.45-5.07l.1-.2a5 5 0 0 1 2-2.1l.18-.09A6 6 0 0 1 7 7.04V5.99a5 5 0 0 1 4.74-4.98L12 1zM9.8 8.8c-1.43 0-2.4 0-3.14.06-.72.06-1.08.17-1.32.29-.6.3-1.09.8-1.4 1.4-.12.24-.22.59-.28 1.31-.06.75-.06 1.71-.06 3.14s0 2.4.06 3.14c.06.72.16 1.07.28 1.31.31.6.8 1.1 1.4 1.4l.2.09c.24.08.58.15 1.12.2.74.06 1.7.06 3.14.06h4.42c1.43 0 2.4 0 3.14-.06a4 4 0 0 0 1.32-.29l.22-.12q.75-.48 1.18-1.28l.08-.2c.09-.24.16-.57.2-1.11.06-.75.06-1.71.06-3.14s0-2.4-.06-3.14a4 4 0 0 0-.2-1.1l-.08-.21a3 3 0 0 0-1.18-1.28l-.22-.12c-.24-.12-.6-.23-1.32-.29-.74-.06-1.7-.06-3.14-.06zm2.2-6a3.2 3.2 0 0 0-3.2 3.03V7h6.42V6a3.2 3.2 0 0 0-3.03-3.2z" clip-rule="evenodd"/></svg>

<svg viewBox="0 0 24 24" xmlns="http://www.w3.org/2000/svg" width="24" height="24"><path d="M9.36 12.36A.9 .9 0 0 1 10.63 12.36L12 13.73L13.37 12.36A.9 .9 0 0 1 14.64 13.63L13.28 15L14.7 16.43A.9 .9 0 0 1 13.44 17.7L12 16.27L10.57 17.7A.9 .9 0 0 1 9.3 16.44L10.73 15L9.36 13.63A.9 .9 0 0 1 9.36 12.36"/><path fill-rule="evenodd" d="M12.27 1A5 5 0 0 1 17.01 6L17.01 7.04C18.1 7.09 18.85 7.22 19.48 7.54A5 5 0 0 1 21.67 9.73C22.21 10.8 22.21 12.2 22.21 15C22.21 17.8 22.21 19.2 21.67 20.27L21.57 20.44A5 5 0 0 1 19.48 22.46L19.28 22.56C18.51 22.88 17.56 22.96 16.07 22.99L7.93 23C6.44 22.97 5.49 22.88 4.73 22.55L4.52 22.45A5 5 0 0 1 2.42 20.45L2.33 20.27C1.8 19.2 1.8 17.8 1.8 15C1.8 12.37 1.8 10.98 2.25 9.93L2.35 9.73A5 5 0 0 1 4.35 7.63L4.53 7.54A6 6 0 0 1 7 7.04L7 5.99A5 5 0 0 1 11.74 1.01L12 1ZM9.8 8.8c-1.43 0-2.4 0-3.14.06-.72.06-1.08.17-1.32.29-.6.3-1.09.8-1.4 1.4-.12.24-.22.59-.28 1.31-.06.75-.06 1.71-.06 3.14s0 2.4.06 3.14c.06.72.16 1.07.28 1.31.31.6.8 1.1 1.4 1.4l.2.09c.24.08.58.15 1.12.2.74.06 1.7.06 3.14.06h4.42c1.43 0 2.4 0 3.14-.06a4 4 0 0 0 1.32-.29l.22-.12q.75-.48 1.18-1.28l.08-.2c.09-.24.16-.57.2-1.11.06-.75.06-1.71.06-3.14s0-2.4-.06-3.14a4 4 0 0 0-.2-1.1l-.08-.21a3 3 0 0 0-1.18-1.28l-.22-.12c-.24-.12-.6-.23-1.32-.29-.74-.06-1.7-.06-3.14-.06zm2.2-6a3.2 3.2 0 0 0-3.2 3.03V7h6.42V6a3.2 3.2 0 0 0-3.03-3.2z" clip-rule="evenodd"/></svg>
